X:2
T:The Tap Room
T:Sweet Molly
T:Hopetown House
R:reel
C:traditional Irish
O:Scottish (Sweet Molly, Hopetown House)
D:An Historic Recording of Irish Music
H:first recorded by James Morrison
Z:Paul Stewart Cranford (P.S.C.), <http://www.cranfordpub.com>
N:
H:
L:1/8
Q:333
M:C|
K:Eminor
E2 BE dE B2|dBAF DEFD|E2 BE dE B2|dBAc BE{G}ED|
E2 BE dE B2|dBAF DEFA|afge fdeB|(3(dcB) Ac BE E2:|
|:Bdef gfed|(3(BcB) AF DFED|Bdef gfeB|dBAc B(E ~E2)|
Bdef gfed|(3(BcB) AF DFEA|afge fdeB|(3(dcB) Ac BE E2:|
